Silhouettes/Maxillary Bone.svg

<?xml version="1.0" encoding="UTF-8" standalone="no"?>
<!-- Created with Inkscape (http://www.inkscape.org/) -->

<svg
   width="67.680618mm"
   height="33.747654mm"
   viewBox="0 0 67.680618 33.747654"
   version="1.1"
   id="svg1"
   xml:space="preserve"
   xmlns="http://www.w3.org/2000/svg"
   xmlns:svg="http://www.w3.org/2000/svg"><defs
     id="defs1" /><g
     id="layer1"
     transform="translate(-97.683101,-137.89888)"><path
       style="display:inline;opacity:1;fill:none;fill-opacity:1;stroke:#000000;stroke-width:1;stroke-linecap:round;stroke-linejoin:round;paint-order:stroke fill markers"
       d="m 164.13639,166.55945 c -0.2107,-0.69531 -0.63211,-2.08594 -1.05351,-3.7189 -0.42141,-1.63295 -0.84281,-3.50816 -1.11672,-5.1095 -0.27391,-1.60134 -0.40033,-2.92874 -0.38979,-4.21403 0.0105,-1.28529 0.15802,-2.5284 0.54782,-3.4871 0.38981,-0.9587 1.0219,-1.63293 1.64347,-2.17022 0.62158,-0.53729 1.2326,-0.93762 1.07457,-1.35903 -0.15804,-0.4214 -1.08511,-0.86387 -2.08595,-1.4117 -1.00084,-0.54783 -2.0754,-1.20099 -3.13945,-1.78042 -1.06405,-0.57943 -2.11754,-1.08511 -3.0341,-1.64347 -0.91656,-0.55837 -1.69614,-1.16939 -2.35985,-1.67508 -0.66372,-0.50568 -1.21153,-0.90601 -1.6224,-1.21153 -0.41087,-0.30552 -0.68478,-0.51622 -1.14833,-0.29497 -0.46355,0.22124 -1.11671,0.8744 -1.98059,1.51705 -0.86389,0.64265 -1.93845,1.27474 -3.48134,1.97186 -1.54289,0.69712 -3.533,1.45127 -5.10374,1.84144 -1.57074,0.39018 -2.70851,0.41124 -4.28879,0.32696 -1.58028,-0.0843 -3.60297,-0.27391 -6.07874,-0.54783 -2.47577,-0.27391 -5.40446,-0.6321 -7.97504,-0.94815 -2.57058,-0.31606 -4.7829,-0.58996 -7.16385,-0.93762 -2.38095,-0.34766 -4.93039,-0.76906 -6.87939,-1.04297 -1.949,-0.27391 -3.29746,-0.40033 -4.67757,-0.54782 -1.38011,-0.1475 -2.79178,-0.31606 -3.80315,-0.44248 -1.01138,-0.12642 -1.622399,-0.2107 -1.790958,-0.0527 -0.168558,0.15803 0.105349,0.55836 0.716393,0.94816 0.611043,0.3898 1.559185,0.76906 2.728585,1.29582 1.16941,0.52676 2.56001,1.20099 3.97173,1.87524 1.41171,0.67425 2.84445,1.34848 4.15081,1.90684 1.30636,0.55836 2.48626,1.00083 3.85584,1.46437 1.36957,0.46355 2.92873,0.94816 4.60383,1.40117 1.67509,0.45301 3.46602,0.87441 5.55198,1.48545 2.08597,0.61104 4.46685,1.41169 6.21568,2.00166 1.74883,0.58997 2.86553,0.96922 4.31939,1.5908 1.45385,0.62157 3.24478,1.48543 4.77238,2.34932 1.5276,0.86389 2.79178,1.72774 4.02439,2.60216 1.23262,0.87442 2.43359,1.75935 3.79263,2.85501 1.35904,1.09566 2.87606,2.40198 4.18242,3.60299 1.30636,1.20101 2.40199,2.29664 3.28694,3.2448 0.88495,0.94816 1.55918,1.74881 1.97005,2.26503 0.41087,0.51623 0.55836,0.74799 0.71639,0.58996 0.15802,-0.15803 0.32658,-0.70584 0.55835,-1.19046 0.23178,-0.48462 0.52675,-0.90601 0.96267,-1.27719 0.43592,-0.37117 1.001,-0.68557 1.69143,-0.85552 0.69043,-0.16995 1.48008,-0.18794 2.17319,-0.24968 0.6931,-0.0617 1.28305,-0.16709 1.57804,-0.21976 0.29498,-0.0527 0.29498,-0.0527 0.0843,-0.74799 z"
       id="path4" /></g></svg>

<?xml version="1.0" encoding="UTF-8" standalone="no"?>
<!DOCTYPE svg PUBLIC "-//W3C//DTD SVG 1.1//EN" "http://www.w3.org/Graphics/SVG/1.1/DTD/svg11.dtd">
<svg width="100%" height="100%" viewBox="0 0 384 192" version="1.1" xmlns="http://www.w3.org/2000/svg" xmlns:xlink="http://www.w3.org/1999/xlink" xml:space="preserve" xmlns:serif="http://www.serif.com/" style="fill-rule:evenodd;clip-rule:evenodd;stroke-linecap:round;stroke-linejoin:round;">
    <g transform="matrix(1,0,0,1,-553.776825,-781.748613)">
        <g transform="matrix(5.669291,0,0,5.669291,0,0)">
            <path id="Maxillary-Bone" serif:id="Maxillary Bone" d="M164.136,166.559C163.926,165.864 163.504,164.474 163.083,162.841C162.661,161.208 162.24,159.332 161.966,157.731C161.692,156.13 161.566,154.802 161.576,153.517C161.587,152.232 161.734,150.989 162.124,150.03C162.514,149.071 163.146,148.397 163.768,147.86C164.389,147.322 165,146.922 164.842,146.501C164.684,146.079 163.757,145.637 162.756,145.089C161.755,144.541 160.681,143.888 159.617,143.309C158.553,142.729 157.499,142.223 156.583,141.665C155.666,141.107 154.887,140.496 154.223,139.99C153.559,139.484 153.011,139.084 152.6,138.778C152.19,138.473 151.916,138.262 151.452,138.483C150.989,138.705 150.335,139.358 149.472,140.001C148.608,140.643 147.533,141.275 146.301,141.886C145.068,142.497 143.677,143.087 142.676,143.467C141.676,143.846 141.065,144.014 140.19,144.109C139.316,144.204 138.178,144.225 136.598,144.141C135.017,144.057 132.995,143.867 130.519,143.593C128.043,143.319 125.114,142.961 122.544,142.645C119.973,142.329 117.761,142.055 115.38,141.707C112.999,141.36 110.45,140.938 108.501,140.664C106.552,140.39 105.203,140.264 103.823,140.116C102.443,139.969 101.031,139.8 100.02,139.674C99.009,139.548 98.398,139.463 98.229,139.621C98.06,139.779 98.334,140.18 98.945,140.569C99.556,140.959 100.505,141.338 101.674,141.865C102.843,142.392 104.234,143.066 105.646,143.74C107.057,144.415 108.49,145.089 109.797,145.647C111.103,146.206 112.283,146.648 113.652,147.112C115.022,147.575 116.581,148.06 118.256,148.513C119.931,148.966 121.722,149.387 123.808,149.998C125.894,150.609 128.275,151.41 130.024,152C131.773,152.59 132.889,152.969 134.343,153.591C135.797,154.212 137.588,155.076 139.116,155.94C140.643,156.804 141.907,157.668 143.14,158.542C144.373,159.417 145.574,160.302 146.933,161.397C148.292,162.493 149.809,163.799 151.115,165C152.421,166.201 153.517,167.297 154.402,168.245C155.287,169.193 155.961,169.994 156.372,170.51C156.783,171.026 156.93,171.258 157.088,171.1C157.246,170.942 157.415,170.394 157.647,169.91C157.879,169.425 158.174,169.004 158.542,168.709C158.911,168.414 159.353,168.245 159.828,168.119C160.302,167.992 160.807,167.908 161.271,167.824C161.734,167.739 162.156,167.655 162.661,167.56C163.167,167.465 163.757,167.36 164.052,167.307C164.347,167.255 164.347,167.255 164.136,166.559L164.136,166.559Z" style="fill:none;fill-rule:nonzero;stroke:black;stroke-width:1px;"/>
        </g>
    </g>
</svg>
